assets/recovery_phrase.svg

<svg fill="none" height="61" viewBox="0 0 73 61" width="73" xmlns="http://www.w3.org/2000/svg"><g fill="#00a1cc"><path d="m37.3284 13.5212c-.3073-.6914-1.4597-.6914-1.767 0 0 .0769-2.6889 5.6083-12.0617 6.5302-.4609.0769-.845.461-.845.9988v9.1423c0 10.602 12.8299 17.2858 13.3677 17.5931.1536.0769.3073.0769.4609.0769.1537 0 .3073 0 .461-.0769.5378-.2305 13.3677-6.9143 13.3677-17.5163v-9.2191c0-.461-.3841-.9219-.8451-.9988-9.2959-.9219-11.9848-6.2229-12.1385-6.5302zm5.9925 15.0579-6.9144 6.9144c-.3841.3841-.9987.6146-1.5365.6146-.6146 0-1.1524-.2305-1.5365-.6146l-3.6108-3.6109c-.8451-.845-.8451-2.2279 0-3.073.845-.8451 2.2279-.8451 3.073 0l2.0743 2.0743 5.3778-5.3778c.8451-.8451 2.228-.8451 3.0731 0 .845.8451.845 2.2279 0 3.073z"/><path d="m72.6673 25.1991-6.5302-10.0642c-.7683-1.1524-2.6889-1.1524-3.3804 0l-6.5302 10.141c-.3841.6146-.4609 1.3829-.0768 2.0743.3841.6146 1.0756 1.0756 1.767 1.0756h4.0718v2.0743c0 14.0592-11.4471 25.5062-25.5063 25.5062-5.9924 0-11.8312-2.1511-16.4407-5.9924-1.0756-.8451-2.6121-.7683-3.4572.3073s-.7683 2.6121.3073 3.4572c5.4547 4.6095 12.4458 7.2216 19.6675 7.2216 16.748 0 30.4231-13.675 30.4231-30.4231v-2.1511h4.0717c.7683 0 1.4597-.3841 1.767-1.0756.2305-.6914.2305-1.4597-.1536-2.1511z"/><path d="m16.8161 33.7266c-.3841-.6146-1.0756-1.0755-1.767-1.0755h-4.0718v-2.1512c0-14.0591 11.4471-25.50621 25.5063-25.50621 5.9924 0 11.8312 2.15113 16.4407 5.99241 1.0756.8451 2.6121.7683 3.4572-.3073.8451-1.07555.7682-2.61207-.3073-3.45716-5.4547-4.60956-12.4458-7.22164-19.6675-7.22164-16.748 0-30.42307 13.675-30.42307 30.4231v2.1511h-3.99496c-.76826 0-1.459689.3842-1.766993 1.0756-.3073044.6914-.3073043 1.4597.076826 2.1511l6.530207 10.0642c.38413.6146.99874.9219 1.69018.9219.69143 0 1.30604-.3841 1.69021-.9219l6.5302-10.141c.3841-.6146.3841-1.3829.0768-1.9975z"/></g></svg>

<svg width="73" height="61" viewBox="0 0 73 61" fill="none" xmlns="http://www.w3.org/2000/svg">
<path d="M37.3284 13.5212C37.0211 12.8298 35.8687 12.8298 35.5614 13.5212C35.5614 13.5981 32.8725 19.1295 23.4997 20.0514C23.0388 20.1283 22.6547 20.5124 22.6547 21.0502V30.1925C22.6547 40.7945 35.4846 47.4783 36.0224 47.7856C36.176 47.8625 36.3297 47.8625 36.4833 47.8625C36.637 47.8625 36.7906 47.8625 36.9443 47.7856C37.4821 47.5551 50.312 40.8713 50.312 30.2693V21.0502C50.312 20.5892 49.9279 20.1283 49.4669 20.0514C40.171 19.1295 37.4821 13.8285 37.3284 13.5212ZM43.3209 28.5791L36.4065 35.4935C36.0224 35.8776 35.4078 36.1081 34.87 36.1081C34.2554 36.1081 33.7176 35.8776 33.3335 35.4935L29.7227 31.8826C28.8776 31.0376 28.8776 29.6547 29.7227 28.8096C30.5677 27.9645 31.9506 27.9645 32.7957 28.8096L34.87 30.8839L40.2478 25.5061C41.0929 24.661 42.4758 24.661 43.3209 25.5061C44.1659 26.3512 44.1659 27.734 43.3209 28.5791Z" fill="#00A1CC"/>
<path d="M72.6673 25.1991L66.1371 15.1349C65.3688 13.9825 63.4482 13.9825 62.7567 15.1349L56.2265 25.2759C55.8424 25.8905 55.7656 26.6588 56.1497 27.3502C56.5338 27.9648 57.2253 28.4258 57.9167 28.4258H61.9885V30.5001C61.9885 44.5593 50.5414 56.0063 36.4822 56.0063C30.4898 56.0063 24.651 53.8552 20.0415 50.0139C18.9659 49.1688 17.4294 49.2456 16.5843 50.3212C15.7392 51.3968 15.816 52.9333 16.8916 53.7784C22.3463 58.3879 29.3374 61 36.5591 61C53.3071 61 66.9822 47.325 66.9822 30.5769V28.4258H71.0539C71.8222 28.4258 72.5136 28.0417 72.8209 27.3502C73.0514 26.6588 73.0514 25.8905 72.6673 25.1991Z" fill="#00A1CC"/>
<path d="M16.8161 33.7266C16.432 33.112 15.7405 32.6511 15.0491 32.6511H10.9773V30.4999C10.9773 16.4408 22.4244 4.99369 36.4836 4.99369C42.476 4.99369 48.3148 7.14482 52.9243 10.9861C53.9999 11.8312 55.5364 11.7544 56.3815 10.6788C57.2266 9.60325 57.1497 8.06673 56.0742 7.22164C50.6195 2.61208 43.6284 0 36.4067 0C19.6587 0 5.98363 13.675 5.98363 30.4231V32.5742H1.98867C1.22041 32.5742 0.528981 32.9584 0.221677 33.6498C-0.0856274 34.3412 -0.0856273 35.1095 0.298503 35.8009L6.82871 45.8651C7.21284 46.4797 7.82745 46.787 8.51889 46.787C9.21032 46.787 9.82493 46.4029 10.2091 45.8651L16.7393 35.7241C17.1234 35.1095 17.1234 34.3412 16.8161 33.7266Z" fill="#00A1CC"/>
<defs>
<linearGradient id="paint0_linear_5277_17151" x1="36.4833" y1="13.0027" x2="36.4833" y2="47.8625" gradientUnits="userSpaceOnUse">
<stop stop-color="#00A1CC"/>
<stop offset="1" stop-color="#0E83A3"/>
</linearGradient>
<linearGradient id="paint1_linear_5277_17151" x1="44.4944" y1="14.2706" x2="44.4944" y2="61" gradientUnits="userSpaceOnUse">
<stop stop-color="#00A1CC"/>
<stop offset="1" stop-color="#0E83A3"/>
</linearGradient>
<linearGradient id="paint2_linear_5277_17151" x1="28.4776" y1="0" x2="28.4776" y2="46.787" gradientUnits="userSpaceOnUse">
<stop stop-color="#00A1CC"/>
<stop offset="1" stop-color="#0E83A3"/>
</linearGradient>
</defs>
</svg>
